src/icons/outline/symbols/lock-locked.svg

<svg width="24" height="24" viewBox="0 0 24 24" fill="none" xmlns="http://www.w3.org/2000/svg">
<g clip-path="url(#clip0_402_674)">
<path d="M11.9678 1C13.4925 1.00005 14.9143 1.58721 15.9961 2.66895C17.0675 3.74039 17.665 5.17253 17.665 6.69727V9.43848H18.8262C20.0315 9.43854 20.9999 10.4167 21 11.6221V20.8262C20.9999 22.0315 20.0315 22.9999 18.8262 23H5.18457C3.97912 23 3 22.0316 3 20.8262V11.6221C3.00017 10.4168 3.97922 9.43848 5.18457 9.43848H6.27051V6.69727C6.27059 5.18283 6.85771 3.75069 7.93945 2.66895C9.01094 1.59758 10.443 1 11.9678 1ZM5.18457 10.9834C4.83437 10.9834 4.54607 11.2719 4.5459 11.6221V20.8262C4.5459 21.1765 4.83427 21.4551 5.18457 21.4551L18.8262 21.4541C19.1764 21.454 19.454 21.1764 19.4541 20.8262V11.6221C19.454 11.2719 19.1764 10.9835 18.8262 10.9834H5.18457ZM12.0605 14C13.1986 14 14.1211 14.9225 14.1211 16.0605C14.1211 17.1986 13.1986 18.1211 12.0605 18.1211C10.9225 18.1211 10 17.1986 10 16.0605C10 14.9226 10.9226 14 12.0605 14ZM11.957 2.55566C10.8547 2.55573 9.79361 2.99883 9.03125 3.77148C8.24829 4.55444 7.81551 5.59496 7.81543 6.69727V9.43848H16.0986V6.69727C16.0986 5.59505 15.6666 4.55442 14.8838 3.77148C14.1008 2.98845 13.0595 2.55566 11.957 2.55566Z" fill="#212121"/>
</g>
<defs>
<clipPath id="clip0_402_674">
<rect width="24" height="24" fill="white"/>
</clipPath>
</defs>
</svg>

<svg xmlns="http://www.w3.org/2000/svg" width="24" height="24" fill="none" viewBox="0 0 24 24"><g clip-path="url(#a)"><path fill="currentColor" d="M11.968 1a5.64 5.64 0 0 1 4.028 1.669 5.67 5.67 0 0 1 1.669 4.028v2.741h1.161c1.206 0 2.174.979 2.174 2.184v9.204A2.17 2.17 0 0 1 18.826 23H5.185A2.177 2.177 0 0 1 3 20.826v-9.204c0-1.205.98-2.184 2.185-2.184H6.27v-2.74c0-1.515.587-2.947 1.668-4.029A5.67 5.67 0 0 1 11.968 1m-6.783 9.983a.64.64 0 0 0-.64.64v9.203c0 .35.29.63.64.63l13.641-.002c.35 0 .628-.278.628-.628v-9.204a.633.633 0 0 0-.628-.639zM12.06 14a2.06 2.06 0 1 1 0 4.121 2.06 2.06 0 0 1 0-4.121m-.104-11.444A4.12 4.12 0 0 0 9.031 3.77a4.12 4.12 0 0 0-1.216 2.926v2.741H16.1v-2.74a4.12 4.12 0 0 0-1.215-2.927 4.12 4.12 0 0 0-2.927-1.215"/></g><defs><clipPath id="a"><path fill="currentColor" d="M0 0h24v24H0z"/></clipPath></defs></svg>
